svgs/home-15.svg

<svg version="1.1" xmlns="http://www.w3.org/2000/svg" xmlns:xlink="http://www.w3.org/1999/xlink"
	 width="15px" height="15px" viewBox="0 0 15 15">
<path d="M2,13.7478c0,0.13807,0.11193,0.25,0.25,0.25h3.749v-3h3v3h3.749c0.13807,0,0.25-0.11193,0.25-0.25V7.9987H2
	C2,7.9987,2,13.7478,2,13.7478z M13.93,6.5778l-0.9319-0.8189V2c0-0.55228-0.44771-1-1-1s-1,0.44772-1,1v2L7.6808,1.09
	C7.5863,0.9897,7.42846,0.98478,7.3279,1.079L7.3169,1.09L1.0678,6.553C0.9734,6.65376,0.97856,6.81197,1.07932,6.90637
	C1.12478,6.94896,1.18451,6.97304,1.2468,6.9739L3,6.9989h10.7468c0.13807,0.00046,0.25037-0.1111,0.25083-0.24917
	C13.99784,6.68592,13.97365,6.62445,13.93,6.5779V6.5778z"/>
</svg>

<svg xmlns="http://www.w3.org/2000/svg" viewBox="0 0 27 27" height="27" width="27"><title>home-15.svg</title><rect fill="none" x="0" y="0" width="27" height="27"></rect><rect x="0" y="0" width="27" height="27" rx="13.5" ry="13.5" fill="rgba(17,34,51,0.88)"></rect><path fill="#fff" transform="translate(6 6)" d="M2,13.75a.25.25,0,0,0,.25.25H6V11H9v3h3.75a.25.25,0,0,0,.25-.25V8H2ZM13.932,6.579,13,5.76V2a1,1,0,0,0-2,0V4L7.682,1.09a.25.25,0,0,0-.353-.011l-.011.011L1.068,6.554a.25.25,0,0,0,.179.421L3,7H13.749a.25.25,0,0,0,.183-.421Z"></path></svg>
